X: 112102
T: CHEAP MEAL
Q: "Reel."
R:  Reel.
%R: reel
B: James Kerr "Merry Melodies" v.1 p.12 s.1 #2
Z: 2017 John Chambers <jc:trillian.mit.edu>
M: C
L: 1/8
K: D
B |\
AFED dFED | EBBA BEEd |\
AFED defe | dBAF ADD :|\
f |\
abaf defd | ebba beef |
abaf defe | dBAF ADDf |\
abaf defd | ebba beef |\
abef dgfe | dBAF ADD |]

%%sep 1 1 500
%%sep 1 1 500

